X: 1
T: Maid That Dare Not Tell, The
M: 4/4
L: 1/8
R: reel
K: Dmaj
FAAF A2 FA | A2 FA BE E2 | FA A2 GABc | dBAG FD D2 :|
FDAD BDAF | GBAF BEEG | FDAD BDAF | GBAG FD D2 :|
